X: 15
T:Roberston's Reel
% Nottingham Music Database
S:Tom Anderson, via PR
M:4/4
L:1/4
K:G
G/2A/2|"G"BA/2B/2 dB/2A/2|"G"G/2A/2G/2E/2 "D"DG/2A/2|"G"BA/2B/2 d/2B/2G/2B/2|\
"Am"A3"D7"G/2A/2|
"G"BA/2B/2 dB/2A/2|"G"G/2A/2G/2E/2 "D"DG/2A/2|"G"B/2A/2B/2d/2 "D7"A/2G/2A/2d/2\
|"G"G3::
B/2c/2|"G"dB/2d/2 gf/2g/2|"C"e/2d/2B/2c/2 "D7"dB/2c/2|"G"dB/2d/2 gf/2g/2|\
"Am"e3"D7"d/2e/2|
"G"gG GB/2A/2|"C"G/2A/2G/2E/2 "D7"DG/2A/2|"G"B/2A/2B/2d/2 "D7"A/2G/2A/2d/2|\
"G"G3:|


